svgs/regular/passport.svg

<svg xmlns="http://www.w3.org/2000/svg" viewBox="0 0 448 512"><!-- Font Awesome Pro 6.0.0-alpha2 by @fontawesome - https://fontawesome.com License - https://fontawesome.com/license (Commercial License) --><path d="M384 0H64C28.654 0 0 28.652 0 64V448C0 483.344 28.654 512 64 512H384C419.199 512 448 483.199 448 448V64C448 28.797 419.199 0 384 0ZM400 448C400 456.836 392.836 464 384 464H64C55.164 464 48 456.836 48 448V64C48 55.164 55.164 48 64 48H384C392.836 48 400 55.164 400 64V448ZM336 384H112C103.25 384 96 391.25 96 400S103.25 416 112 416H336C344.75 416 352 408.75 352 400S344.75 384 336 384ZM224 328C290.25 328 344 274.25 344 208S290.25 88 224 88S104 141.75 104 208S157.75 328 224 328ZM310.375 192H275.75C274.375 168.375 269.999 147 263.5 129.75C287.625 142 305.375 164.625 310.375 192ZM275.75 224H310.375C305.375 251.375 287.5 274 263.5 286.25C269.999 269 274.375 247.625 275.75 224ZM224 122.25C230.875 130.625 241.5 154.625 244 192H204C206.5 154.625 217.125 130.625 224 122.25ZM244 224C241.5 261.375 230.875 285.375 224 293.75C217.125 285.375 206.5 261.375 204 224H244ZM184.5 129.75C177.999 147 173.625 168.375 172.25 192H137.625C142.625 164.625 160.375 142 184.5 129.75ZM172.25 224C173.625 247.625 177.999 269 184.5 286.25C160.5 274 142.625 251.375 137.625 224H172.25Z"/></svg>

<svg xmlns="http://www.w3.org/2000/svg" viewBox="0 0 448 512"><!-- Font Awesome Pro 5.15.1 by @fontawesome - https://fontawesome.com License - https://fontawesome.com/license (Commercial License) --><path d="M416 0H64C28.65 0 0 28.65 0 64v384c0 35.35 28.65 64 64 64h352c17.67 0 32-14.33 32-32V32c0-17.67-14.33-32-32-32zm-16 464H64c-8.82 0-16-7.18-16-16V64c0-8.82 7.18-16 16-16h336v416zm-288-48h224c8.8 0 16-7.2 16-16s-7.2-16-16-16H112c-8.8 0-16 7.2-16 16s7.2 16 16 16zm112-88c66.28 0 120-53.73 120-120 0-66.28-53.72-120-120-120-66.27 0-120 53.72-120 120 0 66.27 53.73 120 120 120zm86.38-136h-34.59c-1.39-23.68-5.75-44.99-12.27-62.19 24.05 12.21 41.81 34.87 46.86 62.19zm-34.59 32h34.59c-5.05 27.32-22.82 49.98-46.86 62.19 6.53-17.21 10.88-38.51 12.27-62.19zM224 122.24c6.91 8.37 17.51 32.39 19.96 69.76h-39.93c2.46-37.37 13.06-61.39 19.97-69.76zM243.96 224c-2.45 37.37-13.05 61.39-19.96 69.76-6.91-8.37-17.51-32.39-19.96-69.76h39.92zm-59.49-94.19c-6.52 17.2-10.87 38.51-12.27 62.19h-34.59c5.06-27.32 22.82-49.98 46.86-62.19zM172.21 224c1.4 23.68 5.75 44.98 12.27 62.19-24.04-12.21-41.8-34.87-46.86-62.19h34.59z"/></svg>
